X:32
T:Lord Wellington. RHu.032
S:R.Hughes MS,1823,Whitchurch,Shrops.
A:Whitchurch, Shropshire
Z:Neil Brookes 2006
M:6/8
L:1/8
Q:3/8=120
R:Jig
K:C
g/f/|e2c cBc|d2AA2B|c2d e2f|g2a g2f|!
e2c cBc|d2A A2B|c2d e2f|dcB Hc2||!
g|a2g fga|g2fe2g|a2g fga|g2fe2g|!
agf gfe|fed edc|def edc|Bcd “D.C.”G2||

